static/img/close-icon.svg

<svg width="38" height="37" viewBox="0 0 38 37" fill="none" xmlns="http://www.w3.org/2000/svg">
<rect x="1.01514" y="0.5" width="36" height="36" rx="18" fill="#030405"/>
<path fill-rule="evenodd" clip-rule="evenodd" d="M24.8839 12.6313C25.2256 12.973 25.2256 13.527 24.8839 13.8687L14.3839 24.3687C14.0421 24.7104 13.4881 24.7104 13.1464 24.3687C12.8047 24.027 12.8047 23.473 13.1464 23.1313L23.6464 12.6313C23.9881 12.2896 24.5421 12.2896 24.8839 12.6313Z" fill="white"/>
<path fill-rule="evenodd" clip-rule="evenodd" d="M13.1464 12.6313C13.4881 12.2896 14.0421 12.2896 14.3839 12.6313L24.8839 23.1313C25.2256 23.473 25.2256 24.027 24.8839 24.3687C24.5421 24.7104 23.9881 24.7104 23.6464 24.3687L13.1464 13.8687C12.8047 13.527 12.8047 12.973 13.1464 12.6313Z" fill="white"/>
<rect x="1.01514" y="0.5" width="36" height="36" rx="18" stroke="#4A4E52"/>
</svg>

<svg xmlns="http://www.w3.org/2000/svg" width="38" height="37" fill="none"><rect width="36" height="36" x="1.015" y=".5" fill="#030405" rx="18"/><path fill="#fff" fill-rule="evenodd" d="M24.884 12.631a.875.875 0 0 1 0 1.238l-10.5 10.5a.875.875 0 0 1-1.238-1.238l10.5-10.5a.875.875 0 0 1 1.238 0Z" clip-rule="evenodd"/><path fill="#fff" fill-rule="evenodd" d="M13.146 12.631a.875.875 0 0 1 1.238 0l10.5 10.5a.875.875 0 1 1-1.238 1.238l-10.5-10.5a.875.875 0 0 1 0-1.238Z" clip-rule="evenodd"/><rect width="36" height="36" x="1.015" y=".5" stroke="#4A4E52" rx="18"/></svg>
